X: 1
T: Anlon McKinney
M: 12/8
L: 1/8
R: slide
K: Gmaj
|:GED G2A GED G2A|~B3 GBd edd dBd|e1/2f1/2ge e1/2f1/2ge ded dBd|
[1edd dBA BGG G2A:|[2edd dBA BGG g3||
|:agg bgg edd edd|edd dBA Bdd g3|agg bgg edd edd|
[1edd dBA BGG g3:|[2edd dBA BGG G2A||
